X:2935
T:Kitchen Hill polka
A:Orkney
M:2/4
O:Scotland
P:AABBACC(A to end)
R:Polka
Z:Richard Robinson 
%%TUNEURL: http://www.leeds.ac.uk/music/Info/RRTuneBk/gettune/0000096f.html
%%ID:0000096f
K:G
P:A
d>c |\
B2B2 B>dc>B | A2E2 E2A>G | \
F2D2 F>DF>c | B>AG>E D2d>c |
B2B2 B>dc>B | A2E2 E2 A>G | \
F2D2 F>cB>A | G2G2G2 :|
P:B
K:D
|:F>G |\
A2F2 d>FB>F | A2G2 G2E>F |\
G2E2 c>dc>A | B>cB>F A2F>G |
A2F2 d>FB>F | A2G2 G2 E>F |\
G2E2 c>AB>c | d2d2 d2 :|
P:C
K:C
|: E4 A3E | F>GF>E D2D>E |\
F4 B3G | A>BA>E G2 (3G^F=F |
E4 A3E | F>GF>E D2 D>E |\
F2D2 B>GA>C | c2c2 c2 :|
